icons/comment-24.svg

<svg xmlns="http://www.w3.org/2000/svg" width="24" height="24" viewBox="0 0 24 24"><path fill-rule="evenodd" d="M3.25 4a.25.25 0 00-.25.25v12.5c0 .138.112.25.25.25h2.5a.75.75 0 01.75.75v3.19l3.72-3.72a.75.75 0 01.53-.22h10a.25.25 0 00.25-.25V4.25a.25.25 0 00-.25-.25H3.25zm-1.75.25c0-.966.784-1.75 1.75-1.75h17.5c.966 0 1.75.784 1.75 1.75v12.5a1.75 1.75 0 01-1.75 1.75h-9.69l-3.573 3.573A1.457 1.457 0 015 21.043V18.5H3.25a1.75 1.75 0 01-1.75-1.75V4.25z"/></svg>

<svg xmlns="http://www.w3.org/2000/svg" width="24" height="24" viewBox="0 0 24 24">
  <defs/>
  <path d="M1.5,4.25 C1.5,3.284 2.284,2.5 3.25,2.5 L20.75,2.5 C21.716,2.5 22.5,3.284 22.5,4.25 L22.5,16.75 C22.5,17.716 21.716,18.5 20.75,18.5 L11.06,18.5 L7.487,22.073 C7.07,22.489 6.444,22.614 5.899,22.389 C5.355,22.163 5,21.632 5,21.043 L5,18.5 L3.25,18.5 C2.284,18.5 1.5,17.716 1.5,16.75 Z M3.25,4 C3.112,4 3,4.112 3,4.25 L3,16.75 C3,16.888 3.112,17 3.25,17 L5.75,17 C6.164,17 6.5,17.336 6.5,17.75 L6.5,20.94 L10.22,17.22 C10.361,17.079 10.551,17 10.75,17 L20.75,17 C20.888,17 21,16.888 21,16.75 L21,4.25 C21,4.112 20.888,4 20.75,4 Z"/>
</svg>
